icons/arrow-box-in-bottom-left.svg

<svg xmlns="http://www.w3.org/2000/svg" width="24" height="24" viewBox="0 0 24 24">
  <path d="M19,2 C20.5976809,2 21.9036609,3.24891996 21.9949073,4.82372721 L22,5 L22,19 C22,20.5976809 20.75108,21.9036609 19.1762728,21.9949073 L19,22 L5,22 C3.40231912,22 2.09633912,20.75108 2.00509269,19.1762728 L2,19 L2,8 C2,7.44771525 2.44771525,7 3,7 C3.51283584,7 3.93550716,7.38604019 3.99327227,7.88337887 L4,8 L4,19 C4,19.5128358 4.38604019,19.9355072 4.88337887,19.9932723 L5,20 L19,20 C19.5128358,20 19.9355072,19.6139598 19.9932723,19.1166211 L20,19 L20,5 C20,4.48716416 19.6139598,4.06449284 19.1166211,4.00672773 L19,4 L9,4 C8.44771525,4 8,3.55228475 8,3 C8,2.48716416 8.38604019,2.06449284 8.88337887,2.00672773 L9,2 L19,2 Z M6.61289944,5.20970461 L6.70710678,5.29289322 L14,12.585 L14,7 C14,6.44771525 14.4477153,6 15,6 C15.5128358,6 15.9355072,6.38604019 15.9932723,6.88337887 L16,7 L16,15 L15.9994829,15.0322546 C15.9989053,15.0502664 15.9978436,15.0682655 15.9962979,15.0862308 L16,15 C16,15.0506203 15.9962388,15.1003621 15.9889807,15.1489612 C15.9863719,15.165949 15.9832978,15.1833753 15.9797599,15.2007258 C15.9753602,15.2227461 15.9701664,15.2444365 15.964279,15.2658396 C15.9599023,15.2814633 15.9552713,15.2968513 15.9502619,15.3121425 C15.9438775,15.3317977 15.9366843,15.3515792 15.928896,15.3710585 C15.9218036,15.3887956 15.914321,15.4060985 15.9063266,15.4232215 C15.8966234,15.4438914 15.8862061,15.4642939 15.8751242,15.484277 C15.8685012,15.4963944 15.8613931,15.5086131 15.8540045,15.5207088 C15.8382813,15.546275 15.8215099,15.5711307 15.8036865,15.5951593 C15.7992821,15.6012086 15.7948255,15.6070733 15.7902954,15.6128994 C15.7381101,15.6796608 15.6796608,15.7381101 15.6148064,15.7887351 L15.7071068,15.7071068 C15.6717127,15.7425008 15.6343256,15.774687 15.5953066,15.8036654 C15.5711307,15.8215099 15.546275,15.8382813 15.5206602,15.8539326 C15.5086131,15.8613931 15.4963944,15.8685012 15.4840621,15.8753288 C15.4642939,15.8862061 15.4438914,15.8966234 15.4230991,15.9063462 C15.4060985,15.914321 15.3887956,15.9218036 15.371336,15.9287745 C15.3515792,15.9366843 15.3317977,15.9438775 15.3117364,15.9504533 C15.3053947,15.9524725 15.298628,15.9546094 15.2918437,15.9566726 L15.2708729,15.9628803 C15.2471983,15.9695267 15.2231682,15.9753235 15.1988177,15.9802356 C15.1912936,15.9816652 15.1838686,15.9830759 15.1764315,15.9844021 L15.1539846,15.9882174 C15.1416037,15.9901309 15.1291477,15.9918173 15.1166211,15.9932723 L15.0811973,15.9967183 C15.0738135,15.9973162 15.0664244,15.9978324 15.0590314,15.9982669 L15.032,15.998 L15,16 L7,16 C6.44771525,16 6,15.5522847 6,15 C6,14.4871642 6.38604019,14.0644928 6.88337887,14.0067277 L7,14 L12.585,14 L5.29289322,6.70710678 C4.90236893,6.31658249 4.90236893,5.68341751 5.29289322,5.29289322 C5.65337718,4.93240926 6.22060824,4.90467972 6.61289944,5.20970461 Z"/>
</svg>

<svg xmlns="http://www.w3.org/2000/svg" viewBox="0 0 24 24">
  <path d="M19 2a3 3 0 0 1 3 2.82V19a3 3 0 0 1-2.82 3H5a3 3 0 0 1-3-2.82V8a1 1 0 0 1 2-.12V19a1 1 0 0 0 .88 1H19a1 1 0 0 0 1-.88V5a1 1 0 0 0-.88-1H9a1 1 0 0 1-.12-2H19zM6.61 5.21l.1.08L14 12.6V7a1 1 0 0 1 2-.12v8.15a1 1 0 0 1 0 .06V15a1 1 0 0 1-.39.79l.1-.08a1 1 0 0 1-.42.25h-.02a1 1 0 0 1-.1.02h-.02a1 1 0 0 1-.03.01h-.09L15 16H7a1 1 0 0 1-.12-2h5.71l-7.3-7.3a1 1 0 0 1 1.32-1.49z"/>
</svg>
